X:187
T:Queens March. JGi.187
M:C
L:1/8
Q:1/4=140
S:Joshua Gibbons MS,1823,Tealby,Lincs.
R:march
O:Tealby,Lincolnshire
Z:VMP/R.Greig, 2009
K:C
GA/B/|c4G3F|E2C2E2G2|c2ced2df|
fedc BGAB|c4G3F|E2C2E2G2|c3 degfe|d4||
GA/B/|c4G3F|E2C2E2G2|c2ced2df|
fedc BGAB|c4G3F|E2C2E2G2|c3 degfe|d4||
de|f3d cBAG|e2c2e2c2|f3d cBAG|g2e2g2e2|
c3ec3e|cBAGg3f|e2efd2de|c2c>cc2|]

